svg/couple with heart woman woman medium-light skin tone.svg

<svg width="128" height="128" xmlns="http://www.w3.org/2000/svg" xmlns:xlink="http://www.w3.org/1999/xlink"><defs><path id="a" d="M0 0h128v128H0z"/></defs><clipPath id="b"><use xlink:href="#a" overflow="visible"/></clipPath><path clip-path="url(#b)" fill="#e0bb95" d="M33.96 144.76h11.42v40.48H33.96z"/><g clip-path="url(#b)"><path d="M-36.84 45.53s0 48.72 6.28 71.38c3.1 11.16 6.95 18.2 16.22 11.24l35.94-.36c9.25 7.06 15.88.29 17.87-11.17 4.71-27.07 4.71-71.09 4.71-71.09h-81.02z" fill="#bfa055"/><ellipse cx="3.79" cy="45.29" rx="40.51" ry="36.42" fill="#bfa055"/><path d="M20.24 101.86c-5.7-1.08-27.77-1.08-33.47 0-18.04 3.43-31.26 11.39-31.26 28.36v57.83l48 .01 48-.01v-57.83c-.01-16.97-13.23-24.93-31.27-28.36z" fill="#651fff"/><path d="M4.02 114.14c-6.08 0-10.9-4.93-10.9-11.01v-9.5h21.8v9.5c0 6.08-4.82 11.01-10.9 11.01z" fill="#c48e6a"/><path d="M-4.15 63.79c0 2.91-1.94 5.26-4.35 5.26-2.41 0-4.36-2.36-4.36-5.26 0-2.91 1.96-5.27 4.36-5.27 2.41 0 4.35 2.36 4.35 5.27" fill="#444"/><path d="M3.79 17.65c-24.91 0-31.42 19.31-31.42 46.43s19.32 35.4 31.42 35.4c12.1 0 31.42-8.27 31.42-35.4S28.69 17.65 3.79 17.65z" fill="#e0bb95"/><path d="M-6.96 65.19c0 2.91-1.95 5.27-4.36 5.27s-4.37-2.36-4.37-5.27c0-2.92 1.96-5.27 4.37-5.27 2.41-.01 4.36 2.35 4.36 5.27M14.53 65.19c0 2.91 1.95 5.27 4.37 5.27 2.41 0 4.36-2.36 4.36-5.27 0-2.92-1.96-5.27-4.36-5.27-2.42-.01-4.37 2.35-4.37 5.27" fill="#444"/><path d="M13.29 38.92C9.98 42.1-6.47 56.93-29.14 60.8V30.41S-19.36 11 4.12 11s33.26 19.9 33.26 19.9v29.9S22 54.9 14.27 39.11a.615.615 0 0 0-.98-.19z" fill="#bfa055"/><path d="M13.23 82.98H3.79h-9.44c-1.08 0-1.55.73-.83 1.82 1 1.53 4.72 4.46 10.28 4.46s9.27-2.94 10.28-4.46c.7-1.09.23-1.82-.85-1.82z" fill="#4c3734"/><path d="M8.35 75.54c-1.61.46-3.27.68-4.56.68S.83 76-.77 75.54c-.69-.19-.96.46-.71.89.51.9 2.56 2.71 5.27 2.71 2.71 0 4.76-1.81 5.27-2.71.25-.43-.02-1.09-.71-.89z" fill="#c48e6a"/></g><g clip-path="url(#b)"><path d="M164.71 45.53s0 48.72-6.28 71.38c-3.1 11.16-6.95 18.2-16.22 11.24l-35.94-.36c-9.25 7.06-15.88.29-17.87-11.17-4.7-27.08-4.7-71.09-4.7-71.09h81.01z" fill="#bfa055"/><ellipse cx="124.09" cy="45.29" rx="40.51" ry="36.42" fill="#bfa055"/><path d="M107.64 101.86c5.7-1.08 27.77-1.08 33.47 0 18.04 3.43 31.26 11.39 31.26 28.36v57.83l-48 .01-48-.01v-57.83c0-16.97 13.23-24.93 31.27-28.36z" fill="#651fff"/><path d="M123.86 114.14c6.08 0 10.9-4.93 10.9-11.01v-9.5h-21.8v9.5c0 6.08 4.82 11.01 10.9 11.01z" fill="#c48e6a"/><path d="M132.02 63.79c0 2.91 1.94 5.26 4.35 5.26 2.41 0 4.36-2.36 4.36-5.26 0-2.91-1.96-5.27-4.36-5.27-2.4 0-4.35 2.36-4.35 5.27" fill="#444"/><path d="M124.09 17.65c24.91 0 31.42 19.31 31.42 46.43s-19.32 35.4-31.42 35.4c-12.1 0-31.42-8.27-31.42-35.4s6.51-46.43 31.42-46.43z" fill="#e0bb95"/><path d="M134.84 65.19c0 2.91 1.95 5.27 4.36 5.27s4.37-2.36 4.37-5.27c0-2.92-1.96-5.27-4.37-5.27-2.42-.01-4.36 2.35-4.36 5.27M113.35 65.19c0 2.91-1.95 5.27-4.37 5.27-2.41 0-4.36-2.36-4.36-5.27 0-2.92 1.96-5.27 4.36-5.27 2.42-.01 4.37 2.35 4.37 5.27" fill="#444"/><path d="M114.59 38.92c3.31 3.18 19.76 18.01 42.42 21.87V30.41S147.23 11 123.75 11 90.49 30.9 90.49 30.9v29.9s15.38-5.9 23.11-21.69c.18-.38.68-.48.99-.19z" fill="#bfa055"/><path d="M114.64 82.98h18.88c1.08 0 1.55.73.83 1.82-1 1.53-4.72 4.46-10.28 4.46s-9.27-2.94-10.28-4.46c-.69-1.09-.23-1.82.85-1.82z" fill="#4c3734"/><path d="M119.53 75.54c1.61.46 3.27.68 4.56.68s2.96-.22 4.56-.68c.69-.19.96.46.71.89-.51.9-2.56 2.71-5.27 2.71-2.71 0-4.76-1.81-5.27-2.71-.25-.43.02-1.09.71-.89z" fill="#c48e6a"/></g><g clip-path="url(#b)"><path d="M33.36 40.87c6.07 9.04 16.89 18.42 24.69 25.69.83.78 1.66 1.61 2.5 2.4.9.83 1.99 2.74 3.44 2.83 1.46-.09 2.54-1.99 3.44-2.83.85-.79 1.67-1.62 2.51-2.4 7.8-7.28 18.62-16.66 24.68-25.69 1.82-2.7 3.15-5.6 3.7-8.81.54-3.22.51-7.85-.8-10.91-3.11-7.25-8.4-11.4-15.67-11.36-.27.01-.53.01-.81.01-2.85.05-5.61.69-8.23 1.77-2.8 1.18-4.73 2.94-7.21 4.52-.94.6-2.28.59-3.22 0-2.49-1.58-4.41-3.35-7.21-4.52-2.62-1.09-5.38-1.73-8.23-1.77-.26-.01-.54-.01-.81-.02-7.28-.04-12.57 4.11-15.67 11.36-1.32 3.07-1.34 7.69-.8 10.91.55 3.22 1.9 6.12 3.7 8.82z" fill="#f06292"/></g></svg>

<?xml version="1.0" encoding="UTF-8" standalone="no"?><!DOCTYPE svg PUBLIC "-//W3C//DTD SVG 1.1//EN" "http://www.w3.org/Graphics/SVG/1.1/DTD/svg11.dtd"><svg width="534px" height="534px" version="1.1" xmlns="http://www.w3.org/2000/svg" xmlns:xlink="http://www.w3.org/1999/xlink" xml:space="preserve" xmlns:serif="http://www.serif.com/" style="fill-rule:evenodd;clip-rule:evenodd;stroke-linejoin:round;stroke-miterlimit:2;"><g transform="matrix(4.16667,0,0,4.16667,0,0)"><g><g><path d="M-36.84,45.53C-36.84,45.53 -36.84,94.25 -30.56,116.91C-27.46,128.07 -23.61,135.11 -14.34,128.15L21.6,127.79C30.85,134.85 37.48,128.08 39.47,116.62C44.18,89.55 44.18,45.53 44.18,45.53L-36.84,45.53Z" style="fill:#bfa055;fill-rule:nonzero;"/><ellipse cx="3.79" cy="45.29" rx="40.51" ry="36.42" style="fill:#bfa055;"/><path d="M20.24,101.86C14.54,100.78 -7.53,100.78 -13.23,101.86C-31.27,105.29 -44.49,113.25 -44.49,130.22L-44.49,188.05L3.51,188.06L51.51,188.05L51.51,130.22C51.5,113.25 38.28,105.29 20.24,101.86Z" style="fill:#651fff;fill-rule:nonzero;"/><path d="M4.02,114.14C-2.06,114.14 -6.88,109.21 -6.88,103.13L-6.88,93.63L14.92,93.63L14.92,103.13C14.92,109.21 10.1,114.14 4.02,114.14Z" style="fill:#c48e6a;fill-rule:nonzero;"/><path d="M3.79,17.65C-21.12,17.65 -27.63,36.96 -27.63,64.08C-27.63,91.2 -8.31,99.48 3.79,99.48C15.89,99.48 35.21,91.21 35.21,64.08C35.21,36.95 28.69,17.65 3.79,17.65Z" style="fill:#e0bb95;fill-rule:nonzero;"/><path d="M-6.96,65.19C-6.96,68.1 -8.91,70.46 -11.32,70.46C-13.73,70.46 -15.69,68.1 -15.69,65.19C-15.69,62.27 -13.73,59.92 -11.32,59.92C-8.91,59.91 -6.96,62.27 -6.96,65.19M14.53,65.19C14.53,68.1 16.48,70.46 18.9,70.46C21.31,70.46 23.26,68.1 23.26,65.19C23.26,62.27 21.3,59.92 18.9,59.92C16.48,59.91 14.53,62.27 14.53,65.19" style="fill:#444;fill-rule:nonzero;"/><path d="M13.29,38.92C9.98,42.1 -6.47,56.93 -29.14,60.8L-29.14,30.41C-29.14,30.41 -19.36,11 4.12,11C27.6,11 37.38,30.9 37.38,30.9L37.38,60.8C37.38,60.8 22,54.9 14.27,39.11C14.17,38.893 13.951,38.753 13.712,38.753C13.555,38.753 13.404,38.813 13.29,38.92Z" style="fill:#bfa055;fill-rule:nonzero;"/><path d="M13.23,82.98L-5.65,82.98C-6.73,82.98 -7.2,83.71 -6.48,84.8C-5.48,86.33 -1.76,89.26 3.8,89.26C9.36,89.26 13.07,86.32 14.08,84.8C14.78,83.71 14.31,82.98 13.23,82.98Z" style="fill:#4c3734;fill-rule:nonzero;"/><path d="M8.35,75.54C6.74,76 5.08,76.22 3.79,76.22C2.5,76.22 0.83,76 -0.77,75.54C-1.46,75.35 -1.73,76 -1.48,76.43C-0.97,77.33 1.08,79.14 3.79,79.14C6.5,79.14 8.55,77.33 9.06,76.43C9.31,76 9.04,75.34 8.35,75.54Z" style="fill:#c48e6a;fill-rule:nonzero;"/></g></g><g><g><path d="M164.71,45.53C164.71,45.53 164.71,94.25 158.43,116.91C155.33,128.07 151.48,135.11 142.21,128.15L106.27,127.79C97.02,134.85 90.39,128.08 88.4,116.62C83.7,89.54 83.7,45.53 83.7,45.53L164.71,45.53Z" style="fill:#ff1010;fill-rule:nonzero;"/><ellipse cx="124.09" cy="45.29" rx="40.51" ry="36.42" style="fill:#ff1010;"/><path d="M107.64,101.86C113.34,100.78 135.41,100.78 141.11,101.86C159.15,105.29 172.37,113.25 172.37,130.22L172.37,188.05L124.37,188.06L76.37,188.05L76.37,130.22C76.37,113.25 89.6,105.29 107.64,101.86Z" style="fill:#651fff;fill-rule:nonzero;"/><path d="M123.86,114.14C129.94,114.14 134.76,109.21 134.76,103.13L134.76,93.63L112.96,93.63L112.96,103.13C112.96,109.21 117.78,114.14 123.86,114.14Z" style="fill:#e83d3d;fill-rule:nonzero;"/><path d="M124.09,17.65C149,17.65 155.51,36.96 155.51,64.08C155.51,91.2 136.19,99.48 124.09,99.48C111.99,99.48 92.67,91.21 92.67,64.08C92.67,36.95 99.18,17.65 124.09,17.65Z" style="fill:#bb5c5c;fill-rule:nonzero;"/><path d="M134.84,65.19C134.84,68.1 136.79,70.46 139.2,70.46C141.61,70.46 143.57,68.1 143.57,65.19C143.57,62.27 141.61,59.92 139.2,59.92C136.78,59.91 134.84,62.27 134.84,65.19M113.35,65.19C113.35,68.1 111.4,70.46 108.98,70.46C106.57,70.46 104.62,68.1 104.62,65.19C104.62,62.27 106.58,59.92 108.98,59.92C111.4,59.91 113.35,62.27 113.35,65.19" style="fill:#444;fill-rule:nonzero;"/><path d="M114.59,38.92C117.9,42.1 134.35,56.93 157.01,60.79L157.01,30.41C157.01,30.41 147.23,11 123.75,11C100.27,11 90.49,30.9 90.49,30.9L90.49,60.8C90.49,60.8 105.87,54.9 113.6,39.11C113.78,38.73 114.28,38.63 114.59,38.92Z" style="fill:#ff1010;fill-rule:nonzero;"/><path d="M114.64,82.98L133.52,82.98C134.6,82.98 135.07,83.71 134.35,84.8C133.35,86.33 129.63,89.26 124.07,89.26C118.51,89.26 114.8,86.32 113.79,84.8C113.1,83.71 113.56,82.98 114.64,82.98Z" style="fill:#4c3734;fill-rule:nonzero;"/><path d="M119.53,75.54C121.14,76 122.8,76.22 124.09,76.22C125.38,76.22 127.05,76 128.65,75.54C129.34,75.35 129.61,76 129.36,76.43C128.85,77.33 126.8,79.14 124.09,79.14C121.38,79.14 119.33,77.33 118.82,76.43C118.57,76 118.84,75.34 119.53,75.54Z" style="fill:#e50000;fill-rule:nonzero;"/></g></g><g><path d="M33.36,40.87C39.43,49.91 50.25,59.29 58.05,66.56C58.88,67.34 59.71,68.17 60.55,68.96C61.45,69.79 62.54,71.7 63.99,71.79C65.45,71.7 66.53,69.8 67.43,68.96C68.28,68.17 69.1,67.34 69.94,66.56C77.74,59.28 88.56,49.9 94.62,40.87C96.44,38.17 97.77,35.27 98.32,32.06C98.86,28.84 98.83,24.21 97.52,21.15C94.41,13.9 89.12,9.75 81.85,9.79C81.58,9.8 81.32,9.8 81.04,9.8C78.19,9.85 75.43,10.49 72.81,11.57C70.01,12.75 68.08,14.51 65.6,16.09C64.66,16.69 63.32,16.68 62.38,16.09C59.89,14.51 57.97,12.74 55.17,11.57C52.55,10.48 49.79,9.84 46.94,9.8C46.68,9.79 46.4,9.79 46.13,9.78C38.85,9.74 33.56,13.89 30.46,21.14C29.14,24.21 29.12,28.83 29.66,32.05C30.21,35.27 31.56,38.17 33.36,40.87Z" style="fill:#f06292;fill-rule:nonzero;"/></g></g></svg>
